outputs/icons/communication/email_alt_round.svg

<svg xmlns="http://www.w3.org/2000/svg" width="1200" height="1200" fill="none"><g clip-path="url(#a)"><path fill="#000" d="M636.005 101.503c-304.502-21.499-556.001 230-534.502 534.502 18.001 264.5 249 464 514.002 464h184.5c27.5 0 50-22.5 50-50s-22.5-50-50-50h-183.5c-186.501 0-357.502-121-404.001-301.5-74.5-290.001 195.499-560.501 485.501-485.501 181 45.999 302 217 302 403.501v55c0 39.5-35.5 78.5-75 78.5s-75-39-75-78.5v-62.5c0-125.501-89-238.501-213-256.002-170.001-24.499-313.502 122.501-283.001 293.502 16.999 95.5 91.499 174.5 186.001 197 92 21.5 179.5-8 237-66.5 44.5 61 133.5 93 215 60.5 67-26.5 108-95 108-167v-54.5c0-265.502-199.5-496.501-464-514.502m-36 648.502c-83 0-150.002-67-150.002-150s67.002-150.002 150.002-150.002 150 67.002 150 150.002-67 150-150 150"/></g><defs><clipPath id="a"><path fill="#fff" d="M0 0h1200v1200H0z"/></clipPath></defs></svg>

<svg width="1200" height="1200" viewBox="0 0 1200 1200" fill="none" xmlns="http://www.w3.org/2000/svg"><g clip-path="url(#clip0_225_2424)"><path d="M636.005 101.503C331.503 80.004 80.004 331.503 101.503 636.005C119.504 900.505 350.503 1100.005 615.505 1100.005H800.005C827.505 1100.005 850.005 1077.505 850.005 1050.005C850.005 1022.505 827.505 1000.005 800.005 1000.005H616.505C430.004 1000.005 259.003 879.005 212.504 698.505C138.004 408.504 408.003 138.004 698.005 213.004C879.005 259.003 1000.005 430.004 1000.005 616.505V671.505C1000.005 711.005 964.505 750.005 925.005 750.005C885.505 750.005 850.005 711.005 850.005 671.505V609.005C850.005 483.504 761.005 370.504 637.005 353.003C467.004 328.504 323.503 475.504 354.004 646.505C371.003 742.005 445.503 821.005 540.005 843.505C632.005 865.005 719.505 835.505 777.005 777.005C821.505 838.005 910.505 870.005 992.005 837.505C1059.005 811.005 1100.005 742.505 1100.005 670.505V616.005C1100.005 350.503 900.505 119.504 636.005 101.503ZM600.005 750.005C517.005 750.005 450.003 683.005 450.003 600.005C450.003 517.005 517.005 450.003 600.005 450.003C683.005 450.003 750.005 517.005 750.005 600.005C750.005 683.005 683.005 750.005 600.005 750.005Z" fill="#1D1E23"/></g><defs><clipPath id="clip0_225_2424"><path width="24" fill="white" d="M0 0H1200V1200H0V0z"/></clipPath></defs></svg>
